X: 227
T: the Wink of Her Eye
B: O'Neill's 227
N: "Cheerful"
N: "Collected by F.O'Neill"
Z: 1997 by John Chambers <jc@trillian.mit.edu>
M: 6/8
L: 1/8
K:G
(g/a/) \
|b2g agfe|dcB cde|dBd gfe|dBG A2 g/a/|
|bag agfe|dcB cde|dge dcB|cBA G2||
||f/g/ \
|a2b d'c'ba|gfe d3|cBA Bcd|age d2f/g/|
|a2b d'c'ba|bd'b g2e|dge dcB|cBA G2||
